!!!COM: Music21
!!!OTL: mazurka_Ar-Vuhez-
!!!OMV: mazurka_Ar-Vuhez-
**kern
*clefG2
*k[]
*M3/4
=1
8e
8a
8b
=
4.cc
8dd
8bL
8ccJ
=
4a
4g
8aL
8bJ
=
8ccL
8bJ
16aLL
16bJ
8ccJ
8ddL
8eeJ
=
4.b
8e
8aL
8bJ
=
4.cc
8dd
8bL
8ccJ
=
4a
4g
8aL
8bJ
=
4cc
8aL
8ccJ
8ddL
8eeJ
!!linebreak:original
=
4.a
4.ryy
=||
*M3/4
8e
8a
8b
=
4.cc
8dd
8bL
8ccJ
=
4a
4g
8aL
8bJ
=
8ccL
8bJ
16aLL
16bJ
8ccJ
8ddL
8eeJ
=
4.b
8e
8aL
8bJ
=
4.cc
8dd
8bL
8ccJ
=
4a
4g
8aL
8bJ
!!linebreak:original
=
4cc
8aL
8ccJ
8ddL
8eeJ
=
8a
8e
8a
4.ryy
=||
8b
8cc
8dd
4.ryy
=
4.ee
8ff
4dd
=
4.cc
8dd
16eeLL
16ddJ
8ccJ
=
8bL
8aJ
8bL
8ddJ
8ccL
8bJ
=
4cc
8aL
8bJ
8ccL
8ddJ
!!linebreak:original
=
8eeL
8ddJ
8eeL
8ffJ
4dd
=
4.cc
8dd
8eeL
8ccJ
=
8bL
8aJ
8bL
8ddJ
8ccL
8bJ
=
4a
8a
4.ryy
=||
8b
8cc
8dd
4.ryy
=
4.ee
8ff
4dd
=
4.cc
8dd
16eeLL
16ddJ
8ccJ
=
8bL
8aJ
8bL
8ddJ
8ccL
8bJ
!!linebreak:original
=
4cc
8aL
8bJ
8ccL
8ddJ
=
8eeL
8ddJ
8eeL
8ffJ
4dd
=
4.cc
8dd
8eeL
8ccJ
=
8bL
8aJ
8bL
8ddJ
8ccL
8bJ
=
4.a
4.ryy
=||
*-
